X: 6
T: The Flax In Bloom
R: reel
M: 4/4
L: 1/8
K: Dmaj
|: D2DD ADFA | fedf edB2 | AFFF dfaf | gefd edBA || D2DD ADFA | f2ff edB2 | AFFF ABdf | afeg fede ||: f2ff egfe | dedA BAFA | DFAD FAdf | gefd edBd || fedf edce | d3A BAFA | DFAD FAdf | afeg fed2 :|


Tune 748	Setting 27290

